X:1
T:Title
%%score 1 { ( 2 3 ) | ( 4 5 ) }
L:1/8
M:4/4
K:F
V:1 treble nm="Akkordion"
V:2 treble nm="Grand Piano"
V:3 treble 
V:4 bass 
V:5 bass 
V:1
 z8[Q:1/4=100] | z8 | z8 | z8 |[M:3/4] z6 |[M:1/4] z2 |[M:4/4] z8 | z8 | z8 |[M:1/4] z2 | %10
[M:3/4] c2 c4- |[M:4/4] c8- | c2 c2 c4- | c8- | c2 c2 c4- | c8- | c4 B2 d2 | c4 c4 | c6 AB | c8- | %20
 c4 B2 d2 | c6 B2 |[M:3/4] A6 |] %23
V:2
 z4 z2 z G | [CFA]2 [A,F]2 [Ac]2 [A,FA]2 | [FA]2 [EG]2 [EG]2 [EG][FA] | [GB]2 [EG]2 [Ac]2 [GB]2 | %4
[M:3/4] A6 |[M:1/4] z G |[M:4/4] [CFA]2 [A,F]2 [Ac]2 [A,FA]2 | [FA]2 [EG]2 [EG]2 [EG][FA] | %8
 [GB]2 [GB]2 [FA]2 [EG]2 |[M:1/4] F2 |[M:3/4] z2 z2 c2 |[M:4/4] B2 c2 A2 B2 | G6 c2 | B2 c2 A2 B2 | %14
 G6 [GB]2 | A2 c2 B2 d2 | c2 f2 d2 [GB]2 | [FA]4 [EG]4 | [FA]6 z G | A2 c2 B2 d2 | c2 f2 d2 [GB]2 | %21
 [FA]4 [EG]4 |[M:3/4] F6 |] %23
V:3
 z4 z2 F2 | x8 | x8 | x8 |[M:3/4] x6 |[M:1/4] F2 |[M:4/4] x8 | x8 | x8 |[M:1/4] x2 |[M:3/4] x6 | %11
[M:4/4] x8 | x8 | x8 | x8 | x8 | x8 | x8 | z4 z2 F2 | x8 | x8 | x8 |[M:3/4] x6 |] %23
V:4
 z4 z2 A,B, | F,2 F,2 F,2 F,2 | [C,C]2 [C,C]2 [C,C]2 [C,C]2 | [C,C]2 [C,C]2 [C,C]2 [C,C]2 | %4
[M:3/4] [F,CF]6 |[M:1/4] A,B, |[M:4/4] F,2 F,2 F,2 F,2 | [C,C]2 [C,C]2 [C,C]2 [C,C]2 | %8
 [C,C]2 [C,C]2 [C,C]2 [C,B,]2 |[M:1/4] [F,A,]2 |[M:3/4] z2 z2[K:treble] A2 |[M:4/4] G2 A2 F2 G2 | %12
 E6 A2 | G2 A2 F2 G2 | E6[K:bass] C,2 | [F,F]4[K:treble] [G,E]4 | A,4 z4[K:bass] | C,4 C,4 | %18
 F,6 F,2 | [F,F]4 [G,E]4 | A,4 z4[K:bass] | C,4 C,4 |[M:3/4] F,6 |] %23
V:5
 z4 z2 F,2 | x8 | x8 | x8 |[M:3/4] x6 |[M:1/4] F,2 |[M:4/4] x8 | x8 | x8 |[M:1/4] x2 | %10
[M:3/4] x4[K:treble] x2 |[M:4/4] x8 | x8 | x8 | x6[K:bass] x2 | x4[K:treble] x4 | %16
 F4- [B,F]2[K:bass] B,,2 | x8 | x8 | x8 | F4- [B,F]2[K:bass] B,,2 | x8 |[M:3/4] x6 |] %23

